X:139
T: Et sass e kli waeld Voegelain
N: D0220A
O: Europa, Mitteleuropa, Deutschland, Siebenbuergen
N: Variante zu D0220
R: Liebes - Ballade
M: 2/4
L: 1/8
K: G
D | GGGA | _BBB
B | c_BAG | A2A
G | _BBBc | ddd
G | GA_BF | G2z

